X: 1
T: Calum's Waltz
C: Steve Spence
R: waltz
S: https://thesession.org/tunes/20968 2022-1-26
S: FSCDS Boston handout for 2022-1-24 zoom session
M: 3/4
L: 1/8
K: G
D>F \
| "G"G3 A B>d | "D"F3 G A>F \
| "C"E3 c E2 | "D"F4 A>B |\
| "C"c3 d e<g | "G"d3 d B>G |
[1,3 "Am"E2 c2 B2 | "D"A4 :|\
[2,4 "Am"E2 c2 "D7"E>F | "G"G4 :: G>F \
| "C"E3 G c<E | "D"F3 A d<F \
| "G"G3 A B>d | "D"F4 A>B |
| "C"c3 d e<g | "G"d3 d B>G |\
[1,3 "Am"E2 c2 Bc/B/ | "D"A3 D :|\
[2,4 "Am"E2 c>D "D7"E>F | "G"G4 :|
